img/icn_service-2.svg

<svg enable-background="new 0 0 128 123.6" viewBox="0 0 128 123.6" xmlns="http://www.w3.org/2000/svg"><g fill="#fff"><path d="m42 107.8c-6.1 3.7-9.1 8.5-7.4 15.4h25c1.7-7.3-1.8-12-7.3-15.6 4.6-5.9 4.9-11.2 1.1-14.8-3.3-3.1-8.9-3.2-12.3-.3-4.2 3.8-4 9.1.9 15.3zm33.7-.2c-5.8 4.5-9.2 8.2-6.9 15.8h24.7c1.7-7.3-1.7-12-7.2-15.5 4.7-6.3 4.9-11.5.8-15.1-3.4-3-8.9-2.9-12.3.2-4.1 3.4-3.8 8.8.9 14.6z"/><path d="m42 107.8c-4.9-6.2-5.1-11.6-.9-15.2 3.4-3 9-2.8 12.3.3 3.8 3.6 3.5 8.9-1.1 14.8 5.5 3.6 8.9 8.3 7.3 15.6-8.2 0-16.5 0-25 0-1.7-7 1.3-11.7 7.4-15.5z"/><path d="m75.7 107.6c-4.6-5.7-4.9-11.1-1-14.7 3.4-3.1 8.9-3.2 12.3-.2 4.2 3.7 4 8.8-.8 15.1 5.6 3.5 9 8.2 7.2 15.5-8.3 0-16.5 0-24.7 0-2.3-7.6 1.1-11.3 7-15.7z"/><path d="m70.1.3s1.8 29.5 15.4 41.7 23.6 14.3 29.3 14.8 13.2 1 13.2 1l-.1-57.6h-57.8z"/><path d="m57.9.3s-1.8 29.5-15.4 41.7-23.6 14.3-29.3 14.8-13.2 1.1-13.2 1.1l.1-57.6z"/><path d="m127.9 64s-16.6-1.9-24.7 7.2-8.3 18.9-8.5 23.9l6.1-.1s.8-10 14-10.1 13.2 10.2 13.2 10.2z"/><path d="m.1 64s16.6-1.9 24.7 7.2 8.3 18.9 8.5 23.9l-6.1-.1s-.8-10-14-10.1-13.2 10.2-13.2 10.2z"/><path d="m108.8 107.6c-4.6-5.7-4.9-11.1-1-14.7 3.4-3.1 8.9-3.2 12.3-.2 4.2 3.7 4 8.8-.8 15.1 5.6 3.5 9 8.2 7.2 15.5-8.3 0-16.5 0-24.7 0-2.2-7.6 1.2-11.3 7-15.7z"/><path d="m8.1 107.8c-4.8-6.2-5.1-11.5-.9-15.2 3.4-3 9-2.8 12.3.3 3.8 3.6 3.5 8.9-1.1 14.8 5.5 3.6 8.9 8.3 7.3 15.6-8.2 0-16.5 0-25 0-1.6-7 1.3-11.7 7.4-15.5z"/></g></svg>

<?xml version="1.0" encoding="utf-8"?>
<!-- Generator: Adobe Illustrator 24.1.2, SVG Export Plug-In . SVG Version: 6.00 Build 0)  -->
<svg version="1.1" id="レイヤー_1" xmlns="http://www.w3.org/2000/svg" xmlns:xlink="http://www.w3.org/1999/xlink" x="0px"
	 y="0px" viewBox="0 0 128 123.6" style="enable-background:new 0 0 128 123.6;" xml:space="preserve">
<style type="text/css">
	.st0{fill:#FFFFFF;}
</style>
<g>
	<path class="st0" d="M42,107.8c-6.1,3.7-9.1,8.5-7.4,15.4c8.6,0,16.8,0,25,0c1.7-7.3-1.8-12-7.3-15.6c4.6-5.9,4.9-11.2,1.1-14.8
		c-3.3-3.1-8.9-3.2-12.3-0.3C36.9,96.3,37.1,101.6,42,107.8z M75.7,107.6c-5.8,4.5-9.2,8.2-6.9,15.8c8.2,0,16.4,0,24.7,0
		c1.7-7.3-1.7-12-7.2-15.5c4.7-6.3,4.9-11.5,0.8-15.1c-3.4-3-8.9-2.9-12.3,0.2C70.7,96.4,71,101.8,75.7,107.6z"/>
	<path class="st0" d="M42,107.8c-4.9-6.2-5.1-11.6-0.9-15.2c3.4-3,9-2.8,12.3,0.3c3.8,3.6,3.5,8.9-1.1,14.8
		c5.5,3.6,8.9,8.3,7.3,15.6c-8.2,0-16.5,0-25,0C32.9,116.3,35.9,111.6,42,107.8z"/>
	<path class="st0" d="M75.7,107.6c-4.6-5.7-4.9-11.1-1-14.7c3.4-3.1,8.9-3.2,12.3-0.2c4.2,3.7,4,8.8-0.8,15.1
		c5.6,3.5,9,8.2,7.2,15.5c-8.3,0-16.5,0-24.7,0C66.4,115.7,69.8,112,75.7,107.6z"/>
</g>
<path class="st0" d="M70.1,0.3c0,0,1.8,29.5,15.4,41.7s23.6,14.3,29.3,14.8s13.2,1,13.2,1l-0.1-57.6H70.1z"/>
<path class="st0" d="M57.9,0.3c0,0-1.8,29.5-15.4,41.7S18.9,56.3,13.2,56.8S0,57.9,0,57.9L0.1,0.3H57.9z"/>
<path class="st0" d="M127.9,64c0,0-16.6-1.9-24.7,7.2s-8.3,18.9-8.5,23.9l6.1-0.1c0,0,0.8-10,14-10.1S128,95.1,128,95.1L127.9,64z"
	/>
<path class="st0" d="M0.1,64c0,0,16.6-1.9,24.7,7.2s8.3,18.9,8.5,23.9L27.2,95c0,0-0.8-10-14-10.1S0,95.1,0,95.1L0.1,64z"/>
<path class="st0" d="M108.8,107.6c-4.6-5.7-4.9-11.1-1-14.7c3.4-3.1,8.9-3.2,12.3-0.2c4.2,3.7,4,8.8-0.8,15.1
	c5.6,3.5,9,8.2,7.2,15.5c-8.3,0-16.5,0-24.7,0C99.6,115.7,103,112,108.8,107.6z"/>
<path class="st0" d="M8.1,107.8C3.3,101.6,3,96.3,7.2,92.6c3.4-3,9-2.8,12.3,0.3c3.8,3.6,3.5,8.9-1.1,14.8c5.5,3.6,8.9,8.3,7.3,15.6
	c-8.2,0-16.5,0-25,0C-0.9,116.3,2,111.6,8.1,107.8z"/>
</svg>
